X:1
T:Adam`s Apple
C:1966 - Wayne Shorter
Z:Copyright © www.realbook.site
L:1/8
M:4/4
I:linebreak $
K:Ab
V:1 treble nm=" " snm=" "
V:1
|:"Ab7" A8- | A8- | A_GAG BG A z | z _G AG BGAG |$ B8- | B3 C B2 F2 | z8 | z8 ||$"Gb7" A8- | A8- | %10
 A_GAG BG A z | z _G AG BGAG |$"Ab7" B8- | B3 C B2 F2 | z8 | z8 ||$"Abm" B8- |"Db7" BABA dA B z | %18
"Bbm7" z A BA dAeA |"Eb7" f2 _gf ed _c2- |$"Ab7" c8- | c6 B2- | B8- | B8 :| %24

